!!!OTL: ICH WILL MICH UMSCHAUEN
!!!ARE: Europa, Mitteleuropa, Deutschland, Hessen, Darmstadt, Meiningen;
!!    Schlesien
!!!SCT: E0685
!!!YEM: Copyright 1995, estate of Helmut Schaffrath.
**kern
*ICvox
*Ivox
*M3/4
*k[f#]
*G:
{8g
8b
=1
4dd
4dd
8ee
8cc
=2
8cc
8b
4b}
{8dd
8b
=3
8b
8a
8cc
8a
8g
8f#
=4
2g}
{8g
8b
=5
4dd
4dd
8ee
8cc
=6
8cc
8b
4b}
{8dd
8b
=7
8b
8a
8cc
8a
8g
8f#
=8
2g}
{8g
8b
=9
4dd
8b
8a
8g
8b
=10
4a
4a}
{8g
8b
=11
4dd
8b
8a
8g
8b
=12
2a}
{8g
8b
=13
4dd
4dd
8ee
8cc
=14
8cc
8b
4b}
{8dd
8b
=15
8b
8a
8cc
8a
8g
8f#
=16
2g}
==
!!!AGN: Liebes - Lied, Leid, Klage, Trennung
!!!ONB: ESAC (Essen Associative Code) Database: ERK2
!!!AMT: simple triple
!!!AIN: vox
!!!EED: Helmut Schaffrath
!!!EEV: 1.0
*-
